X:1
L:1/8
M:4/4
K:G
 D | [G,DBg]2 dB G2 BG | E2 AE FDDd | Tg2 dB G2 BG | EAFD G2 G :| d | (ef).g.e fgab | 
 (gfg).e fddf | (ef)ge (fg)ag | (Tfe)fd g2 Bd | efge dBgB | ceBd .A(FTED) | GABG EGce | 
 dBcA G2 G |]
